flaticon/travel/flip-flops-1.svg

<svg xmlns="http://www.w3.org/2000/svg" width="32" height="32" viewBox="0 0 24 24">
    <path d="M 9.179688 0.578125 C 8.488281 0.0859375 7.578125 -0.105469 6.679688 0.0585938 C 5.289062 0.308594 2.84375 1.34375 2.09375 5.417969 C 1.917969 6.394531 1.878906 7.457031 1.988281 8.585938 C 2.109375 9.886719 2.386719 10.984375 3.085938 12.929688 C 3.496094 14.074219 3.828125 15.671875 3.894531 16.820312 C 3.933594 17.441406 3.792969 18.273438 3.667969 19.011719 C 3.578125 19.566406 3.496094 20.050781 3.496094 20.398438 C 3.496094 22.382812 5.109375 24 7.097656 24 L 7.496094 24 C 8.996094 24 10.351562 23.058594 10.875 21.65625 C 11.074219 21.113281 11.121094 20.503906 11.011719 19.84375 L 10.6875 17.898438 C 10.675781 17.859375 9.730469 14.003906 11.09375 8.066406 C 11.132812 7.84375 12.078125 2.644531 9.179688 0.578125 Z M 10.308594 7.902344 C 8.902344 14.03125 9.867188 17.933594 9.902344 18.0625 L 10.222656 19.972656 C 10.308594 20.496094 10.277344 20.964844 10.125 21.375 C 9.71875 22.46875 8.660156 23.199219 7.496094 23.199219 L 7.097656 23.199219 C 5.550781 23.199219 4.296875 21.941406 4.296875 20.398438 C 4.296875 20.117188 4.375 19.644531 4.457031 19.140625 C 4.589844 18.367188 4.734375 17.484375 4.695312 16.773438 C 4.625 15.539062 4.28125 13.886719 3.839844 12.660156 C 3.164062 10.78125 2.898438 9.734375 2.78125 8.507812 C 2.683594 7.457031 2.714844 6.464844 2.882812 5.5625 C 3.511719 2.140625 5.371094 1.109375 6.824219 0.84375 C 6.988281 0.816406 7.148438 0.800781 7.3125 0.800781 C 7.828125 0.800781 8.320312 0.949219 8.714844 1.230469 C 11.195312 3 10.316406 7.867188 10.308594 7.902344 Z M 10.308594 7.902344"/>
    <path d="M7.53125 2.789062C7.53125 2.566406 7.351562 2.390625 7.128906 2.390625 6.90625 2.390625 6.730469 2.566406 6.730469 2.789062L6.730469 4.058594C6.160156 4.179688 5.253906 4.515625 4.597656 5.460938 3.472656 7.070312 3.570312 9.71875 4.890625 13.332031 4.949219 13.496094 5.101562 13.59375 5.265625 13.59375 5.308594 13.59375 5.355469 13.585938 5.402344 13.570312 5.609375 13.496094 5.714844 13.265625 5.640625 13.058594 4.121094 8.894531 4.585938 6.882812 5.246094 5.929688 6.007812 4.820312 7.222656 4.792969 7.269531 4.789062 8 4.789062 8.511719 5.015625 8.835938 5.484375 9.773438 6.84375 8.90625 9.964844 8.492188 11.050781 8.414062 11.257812 8.519531 11.488281 8.726562 11.566406 8.933594 11.644531 9.164062 11.542969 9.242188 11.335938 9.308594 11.160156 10.863281 7.011719 9.496094 5.03125 9.0625 4.402344 8.402344 4.058594 7.53125 4zM21.90625 5.417969C21.15625 1.34375 18.710938.308594 17.320312.0585938 16.421875-.105469 15.511719.0859375 14.820312.578125 11.921875 2.644531 12.867188 7.84375 12.910156 8.082031 14.269531 14.003906 13.324219 17.859375 13.304688 17.929688L12.988281 19.84375C12.878906 20.5 12.925781 21.113281 13.125 21.65625 13.648438 23.058594 15.003906 24 16.503906 24L16.902344 24C18.890625 24 20.503906 22.382812 20.503906 20.398438 20.503906 20.050781 20.425781 19.566406 20.332031 19.011719 20.207031 18.273438 20.066406 17.441406 20.105469 16.820312 20.171875 15.671875 20.503906 14.074219 20.914062 12.929688 21.613281 10.984375 21.890625 9.886719 22.011719 8.585938 22.121094 7.460938 22.082031 6.394531 21.90625 5.417969zM21.214844 8.507812C21.101562 9.734375 20.832031 10.78125 20.160156 12.660156 19.71875 13.886719 19.375 15.539062 19.304688 16.773438 19.261719 17.484375 19.410156 18.367188 19.539062 19.140625 19.625 19.640625 19.703125 20.117188 19.703125 20.398438 19.703125 21.941406 18.445312 23.199219 16.902344 23.199219L16.503906 23.199219C15.339844 23.199219 14.28125 22.464844 13.875 21.375 13.726562 20.972656 13.691406 20.488281 13.777344 19.972656L14.089844 18.097656C14.128906 17.933594 15.097656 14.03125 13.695312 7.917969 13.683594 7.867188 12.796875 3.003906 15.285156 1.230469 15.679688.949219 16.171875.800781 16.6875.800781 16.851562.800781 17.015625.816406 17.175781.84375 18.628906 1.109375 20.488281 2.140625 21.117188 5.5625 21.28125 6.46875 21.316406 7.457031 21.214844 8.507812zM21.214844 8.507812"/>
    <path d="M 17.269531 4.054688 L 17.269531 2.789062 C 17.269531 2.566406 17.09375 2.390625 16.871094 2.390625 C 16.648438 2.390625 16.472656 2.566406 16.472656 2.789062 L 16.472656 4 C 15.605469 4.058594 14.949219 4.398438 14.527344 5.023438 C 13.1875 7.007812 14.828125 11.167969 14.898438 11.34375 C 14.980469 11.546875 15.214844 11.644531 15.417969 11.566406 C 15.625 11.484375 15.722656 11.25 15.640625 11.042969 C 15.207031 9.953125 14.273438 6.824219 15.191406 5.472656 C 15.5 5.011719 16.003906 4.789062 16.730469 4.789062 C 16.742188 4.789062 18.050781 4.808594 18.855469 5.964844 C 19.8125 7.339844 19.6875 9.789062 18.496094 13.058594 C 18.421875 13.265625 18.527344 13.496094 18.734375 13.570312 C 18.78125 13.585938 18.828125 13.59375 18.875 13.59375 C 19.035156 13.59375 19.191406 13.496094 19.25 13.332031 C 20.550781 9.757812 20.640625 7.125 19.515625 5.507812 C 18.824219 4.519531 17.867188 4.175781 17.269531 4.054688 Z M 17.269531 4.054688"/>
</svg>

<svg xmlns="http://www.w3.org/2000/svg" width="32" height="32" viewBox="0 0 24 24">
    <path d="M9.18.578c-.692-.492-1.602-.683-2.5-.52-1.39.25-3.836 1.286-4.586 5.36-.176.977-.215 2.039-.106 3.168.121 1.3.399 2.398 1.098 4.344.41 1.144.742 2.742.809 3.89.039.621-.102 1.453-.227 2.192-.09.554-.172 1.039-.172 1.386A3.605 3.605 0 0 0 7.098 24h.398c1.5 0 2.856-.941 3.379-2.344.2-.543.246-1.152.137-1.812l-.325-1.946c-.011-.039-.957-3.894.407-9.832.039-.222.984-5.421-1.914-7.488zm1.129 7.324c-1.407 6.13-.442 10.032-.407 10.16l.32 1.91c.087.524.055.993-.097 1.403a2.814 2.814 0 0 1-2.629 1.824h-.398a2.803 2.803 0 0 1-2.801-2.8c0-.282.078-.754.16-1.258.133-.774.277-1.657.238-2.368-.07-1.234-.414-2.886-.855-4.113-.676-1.879-.942-2.926-1.059-4.152-.097-1.051-.066-2.043.102-2.945C3.512 2.14 5.37 1.109 6.824.843c.164-.027.324-.042.489-.042.515 0 1.007.148 1.402.43 2.48 1.769 1.601 6.636 1.594 6.671zm0 0"/>
    <path d="M7.531 2.79a.398.398 0 0 0-.402-.4.395.395 0 0 0-.399.4v1.269A3.431 3.431 0 0 0 4.598 5.46c-1.125 1.61-1.028 4.258.293 7.871.058.164.21.262.375.262a.4.4 0 0 0 .375-.535c-1.52-4.164-1.055-6.176-.395-7.13.762-1.109 1.977-1.136 2.024-1.14.73 0 1.242.227 1.566.695.937 1.36.07 4.48-.344 5.567a.4.4 0 0 0 .235.515.398.398 0 0 0 .515-.23c.067-.176 1.621-4.324.254-6.305C9.062 4.402 8.402 4.06 7.531 4zm0 0M21.906 5.418c-.75-4.074-3.195-5.11-4.586-5.36-.898-.163-1.808.028-2.5.52-2.898 2.067-1.953 7.266-1.91 7.504 1.36 5.922.414 9.777.395 9.848l-.317 1.914c-.11.656-.062 1.27.137 1.812A3.619 3.619 0 0 0 16.504 24h.398a3.605 3.605 0 0 0 3.602-3.602c0-.347-.078-.832-.172-1.386-.125-.739-.266-1.57-.227-2.192.067-1.148.399-2.746.81-3.89.698-1.946.976-3.043 1.097-4.344.11-1.125.07-2.191-.106-3.168zm-.691 3.09c-.113 1.226-.383 2.273-1.055 4.152-.441 1.227-.785 2.88-.855 4.113-.043.711.105 1.594.234 2.368.086.5.164.976.164 1.257 0 1.543-1.258 2.801-2.8 2.801h-.4a2.82 2.82 0 0 1-2.628-1.824c-.148-.402-.184-.887-.098-1.402l.313-1.875c.039-.164 1.008-4.067-.395-10.18-.011-.05-.898-4.914 1.59-6.688.395-.28.887-.43 1.402-.43.165 0 .329.016.489.044 1.453.265 3.312 1.297 3.941 4.718.164.907.2 1.895.098 2.946zm0 0"/>
    <path d="M17.27 4.055V2.789a.395.395 0 0 0-.399-.398.395.395 0 0 0-.398.398V4c-.868.059-1.524.398-1.946 1.023-1.34 1.985.301 6.145.371 6.32.082.204.317.302.52.223a.402.402 0 0 0 .223-.523c-.434-1.09-1.368-4.219-.45-5.57.309-.461.813-.684 1.54-.684.011 0 1.32.02 2.124 1.176.957 1.375.832 3.824-.359 7.094a.4.4 0 0 0 .379.535c.16 0 .316-.098.375-.262 1.3-3.574 1.39-6.207.266-7.824a3.572 3.572 0 0 0-2.246-1.453zm0 0"/>
</svg>
